assets/Hotel/Flat/hotel_flat.svg

<svg width="32" height="32" viewBox="0 0 32 32" fill="none" xmlns="http://www.w3.org/2000/svg">
<path d="M21 8.01629C21 5.23834 18.76 3 16 3C13.24 3 11 5.24834 11 8.01629V8H3V8.01629V29.1706V30H3.83H11H21H28.17H29V29.1706V8.01629V8H21V8.01629Z" fill="#FFDEA7"/>
<path d="M11 8V30H10V8H11ZM22 8H21V30H22V8Z" fill="#F3AD61"/>
<path d="M20 20H12V28H20V20Z" fill="#F3C07B"/>
<path d="M6 21.3059V23.6895C6 23.8598 5.86 24 5.68 24H4.31C4.14 24 4 23.8598 4 23.6895V21.3059C4 21.1356 4.14 20.9954 4.31 20.9954H5.69C5.86 20.9954 6 21.1356 6 21.3059Z" fill="#83CBFF"/>
<path d="M9 21.3059V23.6895C9 23.8598 8.86 24 8.68 24H7.31C7.14 24 7 23.8598 7 23.6895V21.3059C7 21.1356 7.14 20.9954 7.31 20.9954H8.69C8.86 20.9954 9 21.1356 9 21.3059Z" fill="#83CBFF"/>
<path d="M6 16.2982V18.6818C6 18.8521 5.86 18.9923 5.68 18.9923H4.31C4.14 18.9923 4 18.8521 4 18.6818V16.2982C4 16.1279 4.14 15.9877 4.31 15.9877H5.69C5.86 15.9877 6 16.1279 6 16.2982Z" fill="#83CBFF"/>
<path d="M9 16.2982V18.6818C9 18.8521 8.86 18.9923 8.68 18.9923H7.31C7.14 18.9923 7 18.8521 7 18.6818V16.2982C7 16.1279 7.14 15.9877 7.31 15.9877H8.69C8.86 15.9877 9 16.1279 9 16.2982Z" fill="#83CBFF"/>
<path d="M6 11.3105V13.6941C6 13.8644 5.86 14.0046 5.68 14.0046H4.31C4.14 14.0046 4 13.8644 4 13.6941V11.3105C4 11.1402 4.14 11 4.31 11H5.69C5.86 11 6 11.1402 6 11.3105Z" fill="#83CBFF"/>
<path d="M9 11.3105V13.6941C9 13.8644 8.86 14.0046 8.68 14.0046H7.31C7.14 14.0046 7 13.8644 7 13.6941V11.3105C7 11.1402 7.14 11 7.31 11H8.69C8.86 11 9 11.1402 9 11.3105Z" fill="#83CBFF"/>
<path d="M24.994 21.3059V23.6895C24.994 23.8598 24.8537 24 24.6834 24H23.3106C23.1403 24 23 23.8598 23 23.6895V21.3059C23 21.1356 23.1403 20.9954 23.3106 20.9954H24.6834C24.8537 20.9954 24.994 21.1356 24.994 21.3059Z" fill="#83CBFF"/>
<path d="M28 21.3059V23.6895C28 23.8598 27.8597 24 27.6894 24H26.3166C26.1463 24 26.006 23.8598 26.006 23.6895V21.3059C26.006 21.1356 26.1463 20.9954 26.3166 20.9954H27.6894C27.8597 20.9954 28 21.1356 28 21.3059Z" fill="#83CBFF"/>
<path d="M24.994 16.2982V18.6818C24.994 18.8521 24.8537 18.9923 24.6834 18.9923H23.3106C23.1403 18.9923 23 18.8521 23 18.6818V16.2982C23 16.1279 23.1403 15.9877 23.3106 15.9877H24.6834C24.8537 15.9877 24.994 16.1279 24.994 16.2982Z" fill="#83CBFF"/>
<path d="M28 16.2982V18.6818C28 18.8521 27.8597 18.9923 27.6894 18.9923H26.3166C26.1463 18.9923 26.006 18.8521 26.006 18.6818V16.2982C26.006 16.1279 26.1463 15.9877 26.3166 15.9877H27.6894C27.8597 15.9877 28 16.1279 28 16.2982Z" fill="#83CBFF"/>
<path d="M24.994 11.3105V13.6941C24.994 13.8644 24.8537 14.0046 24.6834 14.0046H23.3106C23.1403 14.0046 23 13.8644 23 13.6941V11.3105C23 11.1402 23.1403 11 23.3106 11H24.6834C24.8537 11 24.994 11.1402 24.994 11.3105Z" fill="#83CBFF"/>
<path d="M28 11.3105V13.6941C28 13.8644 27.8597 14.0046 27.6894 14.0046H26.3166C26.1463 14.0046 26.006 13.8644 26.006 13.6941V11.3105C26.006 11.1402 26.1463 11 26.3166 11H27.6894C27.8597 11 28 11.1402 28 11.3105Z" fill="#83CBFF"/>
<path d="M15 15.69V13.31C15 13.14 14.8593 13 14.6884 13H13.3116C13.1407 13 13 13.14 13 13.31V15.69C13 15.86 13.1407 16 13.3116 16H14.6884C14.8593 16 15 15.86 15 15.69Z" fill="#83CBFF"/>
<path d="M19 13.31V15.69C19 15.86 18.8593 16 18.6884 16H17.3116C17.1407 16 17 15.86 17 15.69V13.31C17 13.14 17.1407 13 17.3116 13H18.6884C18.8593 13 19 13.14 19 13.31Z" fill="#83CBFF"/>
<path d="M15.1373 27H13.3627C13.1667 27 13 26.8402 13 26.6305V20.3695C13 20.1698 13.1569 20 13.3627 20H15.1373C15.3333 20 15.5 20.1598 15.5 20.3695V26.6305C15.5 26.8402 15.3333 27 15.1373 27Z" fill="#83CBFF"/>
<path d="M16.8627 27H18.6373C18.8333 27 19 26.8402 19 26.6305V20.3695C19 20.1598 18.8333 20 18.6373 20H16.8627C16.6569 20 16.5 20.1698 16.5 20.3695V26.6305C16.5 26.8402 16.6667 27 16.8627 27Z" fill="#83CBFF"/>
<path d="M21.15 5.02H27.84C28.7611 5.02 29.5376 5.681 29.8495 6.60877C29.99 7.02688 30.0448 7.43967 29.6954 7.77289C29.5353 7.92553 29.3208 8.02 29.08 8.02H20.96C20.9579 8.01374 20.9559 8.00791 20.9539 8.00234C20.9463 7.98122 20.94 7.96374 20.94 7.94C20.94 7.63 20.91 7.32 20.85 7.02C20.71 6.28 20.39 5.61 19.96 5.02C19.06 3.8 17.62 3 15.99 3C14.36 3 12.92 3.8 12.02 5.02C11.59 5.61 11.27 6.28 11.13 7.02C11.07 7.32 11.04 7.63 11.04 7.94C11.04 7.955 11.035 7.9675 11.03 7.98C11.025 7.9925 11.02 8.005 11.02 8.02H2.90003C2.62429 8.02 2.38297 7.89609 2.21848 7.7028C1.95811 7.39685 1.99121 7.06093 2.09456 6.69889C2.37282 5.7241 3.16941 5.02 4.12003 5.02H10.81C11.83 3.22 13.77 2 15.98 2C18.19 2 20.13 3.22 21.15 5.02ZM17.5112 6H17.4913C17.222 6 17.0025 6.22 17.0025 6.49V8H14.9975V6.49C14.9975 6.22 14.7781 6 14.5088 6H14.4888C14.2195 6 14 6.22 14 6.49V10.51C14 10.78 14.2195 11 14.4888 11H14.5088C14.7781 11 14.9975 10.78 14.9975 10.51V9.01H17.0025V10.51C17.0025 10.78 17.222 11 17.4913 11H17.5112C17.7806 11 18 10.78 18 10.51V6.49C18 6.22 17.7806 6 17.5112 6ZM21.99 30H10V29.62C10 29.28 10.2805 29 10.6211 29H11V28.5657C11 28.2525 11.2503 28 11.5606 28H20.4395C20.7498 28 21 28.2525 21 28.5657V29H21.379C21.7196 29 22 29.28 22 29.62V30H21.99ZM20.4597 20.36C20.4546 20.355 20.4546 20.3475 20.4546 20.34C20.4546 20.3325 20.4546 20.325 20.4496 20.32C19.5516 18.81 17.907 17.79 16.0101 17.79C14.1133 17.79 12.4686 18.81 11.5707 20.32C11.5707 20.3242 11.5707 20.3267 11.5699 20.3288C11.5688 20.3318 11.5664 20.3342 11.5606 20.34C11.5303 20.4 11.5 20.47 11.5 20.55C11.5 20.8 11.7018 21 11.9541 21H20.046C20.2982 21 20.5 20.8 20.5 20.55C20.5 20.48 20.4899 20.41 20.4597 20.36Z" fill="#F8312F"/>
</svg>

<svg xmlns="http://www.w3.org/2000/svg" width="32" height="32" fill="none"><path fill="#FFDEA7" d="M21 8.016A5.004 5.004 0 0 0 16 3c-2.76 0-5 2.248-5 5.016V8H3v22h26V8h-8v.016Z"/><path fill="#F3AD61" d="M11 8v22h-1V8h1Zm11 0h-1v22h1V8Z"/><path fill="#F3C07B" d="M20 20h-8v8h8v-8Z"/><path fill="#83CBFF" d="M6 21.306v2.383c0 .17-.14.311-.32.311H4.31c-.17 0-.31-.14-.31-.31v-2.384c0-.17.14-.31.31-.31h1.38c.17 0 .31.14.31.31ZM9 21.306v2.383c0 .17-.14.311-.32.311H7.31c-.17 0-.31-.14-.31-.31v-2.384c0-.17.14-.31.31-.31h1.38c.17 0 .31.14.31.31ZM6 16.298v2.384c0 .17-.14.31-.32.31H4.31c-.17 0-.31-.14-.31-.31v-2.384c0-.17.14-.31.31-.31h1.38c.17 0 .31.14.31.31ZM9 16.298v2.384c0 .17-.14.31-.32.31H7.31c-.17 0-.31-.14-.31-.31v-2.384c0-.17.14-.31.31-.31h1.38c.17 0 .31.14.31.31ZM6 11.31v2.384c0 .17-.14.31-.32.31H4.31c-.17 0-.31-.14-.31-.31V11.31c0-.17.14-.31.31-.31h1.38c.17 0 .31.14.31.31ZM9 11.31v2.384c0 .17-.14.31-.32.31H7.31c-.17 0-.31-.14-.31-.31V11.31c0-.17.14-.31.31-.31h1.38c.17 0 .31.14.31.31ZM24.994 21.306v2.383c0 .17-.14.311-.31.311H23.31c-.17 0-.311-.14-.311-.31v-2.384c0-.17.14-.31.31-.31h1.373c.17 0 .311.14.311.31ZM28 21.306v2.383c0 .17-.14.311-.31.311h-1.373c-.17 0-.311-.14-.311-.31v-2.384c0-.17.14-.31.31-.31h1.373c.17 0 .311.14.311.31ZM24.994 16.298v2.384c0 .17-.14.31-.31.31H23.31c-.17 0-.311-.14-.311-.31v-2.384c0-.17.14-.31.31-.31h1.373c.17 0 .311.14.311.31ZM28 16.298v2.384c0 .17-.14.31-.31.31h-1.373c-.17 0-.311-.14-.311-.31v-2.384c0-.17.14-.31.31-.31h1.373c.17 0 .311.14.311.31ZM24.994 11.31v2.384c0 .17-.14.31-.31.31H23.31c-.17 0-.311-.14-.311-.31V11.31c0-.17.14-.31.31-.31h1.373c.17 0 .311.14.311.31ZM28 11.31v2.384c0 .17-.14.31-.31.31h-1.373c-.17 0-.311-.14-.311-.31V11.31c0-.17.14-.31.31-.31h1.373c.17 0 .311.14.311.31ZM15 15.69v-2.38c0-.17-.14-.31-.312-.31h-1.376c-.171 0-.312.14-.312.31v2.38c0 .17.14.31.312.31h1.376c.171 0 .312-.14.312-.31ZM19 13.31v2.38c0 .17-.14.31-.312.31h-1.376a.312.312 0 0 1-.312-.31v-2.38c0-.17.14-.31.312-.31h1.376c.171 0 .312.14.312.31ZM15.137 27h-1.774a.365.365 0 0 1-.363-.37v-6.26c0-.2.157-.37.363-.37h1.774c.196 0 .363.16.363.37v6.26c0 .21-.167.37-.363.37ZM16.863 27h1.774c.196 0 .363-.16.363-.37v-6.26c0-.21-.167-.37-.363-.37h-1.774a.365.365 0 0 0-.363.37v6.26c0 .21.167.37.363.37Z"/><path fill="#F8312F" d="M21.15 5.02h6.69c.921 0 1.698.661 2.01 1.589.14.418.195.83-.155 1.164a.886.886 0 0 1-.615.247h-8.12a.89.89 0 0 0-.006-.018c-.008-.02-.014-.038-.014-.062 0-.31-.03-.62-.09-.92-.14-.74-.46-1.41-.89-2A4.928 4.928 0 0 0 15.99 3c-1.63 0-3.07.8-3.97 2.02-.43.59-.75 1.26-.89 2-.06.3-.09.61-.09.92a.105.105 0 0 1-.01.04c-.005.012-.01.025-.01.04H2.9a.89.89 0 0 1-.682-.317c-.26-.306-.227-.642-.123-1.004.278-.975 1.074-1.679 2.025-1.679h6.69A5.95 5.95 0 0 1 15.98 2a5.95 5.95 0 0 1 5.17 3.02ZM17.511 6h-.02a.49.49 0 0 0-.488.49V8h-2.005V6.49a.49.49 0 0 0-.49-.49h-.02a.49.49 0 0 0-.488.49v4.02c0 .27.22.49.489.49h.02a.49.49 0 0 0 .489-.49v-1.5h2.005v1.5c0 .27.219.49.488.49h.02a.49.49 0 0 0 .489-.49V6.49a.49.49 0 0 0-.489-.49Zm4.479 24H10v-.38c0-.34.28-.62.621-.62H11v-.434c0-.313.25-.566.56-.566h8.88c.31 0 .56.253.56.566V29h.379c.34 0 .621.28.621.62V30h-.01Zm-1.53-9.64c-.005-.005-.005-.012-.005-.02s0-.015-.005-.02a5.155 5.155 0 0 0-4.44-2.53 5.155 5.155 0 0 0-4.44 2.53v.009c-.001.003-.004.005-.01.011-.03.06-.06.13-.06.21 0 .25.202.45.454.45h8.092a.45.45 0 0 0 .454-.45c0-.07-.01-.14-.04-.19Z"/></svg>
